mon-pix/public/images/scorecard-congrats.svg

<?xml version="1.0" encoding="UTF-8"?>
<svg width="156px" height="168px" viewBox="0 0 156 156" version="1.1" xmlns="http://www.w3.org/2000/svg" xmlns:xlink="http://www.w3.org/1999/xlink">
  <defs>
    <linearGradient x1="50%" y1="0%" x2="50%" y2="100%" id="linearGradient-1">
      <stop stop-color="#FFCF43" offset="0%"/>
      <stop stop-color="#FF9516" offset="100%"/>
    </linearGradient>
    <linearGradient x1="8.90206116%" y1="0%" x2="91.0979388%" y2="103.628326%" id="linearGradient-2">
      <stop stop-color="#FFA200" offset="0%"/>
      <stop stop-color="#FF6A2C" offset="100%"/>
    </linearGradient>
    <path
      d="M48.8451964,3.61062258 L9.80239592,26.1522878 C3.73849834,29.6529371 0.00327403478,36.1221731 0.00327403478,43.1234717 L0.00327403478,88.2068022 C0.00327403478,95.2081009 3.73849834,101.677337 9.80239592,105.177986 L48.8451964,127.719651 C54.9081952,131.220301 62.3786438,131.220301 68.4416427,127.719651 L107.485342,105.177986 C113.548341,101.677337 117.283565,95.2081009 117.283565,88.2068022 L117.283565,43.1234717 C117.283565,36.1221731 113.548341,29.6529371 107.485342,26.1522878 L68.4416427,3.61062258 C62.3786438,0.109973239 54.9081952,0.109973239 48.8451964,3.61062258 Z"
      id="path-3"/>
    <filter x="-26.1%" y="-18.3%" width="152.2%" height="147.3%" filterUnits="objectBoundingBox" id="filter-4">
      <feMorphology radius="4.6200001" operator="dilate" in="SourceAlpha" result="shadowSpreadOuter1"/>
      <feOffset dx="0" dy="7" in="shadowSpreadOuter1" result="shadowOffsetOuter1"/>
      <feGaussianBlur stdDeviation="7.5" in="shadowOffsetOuter1" result="shadowBlurOuter1"/>
      <feComposite in="shadowBlurOuter1" in2="SourceAlpha" operator="out" result="shadowBlurOuter1"/>
      <feColorMatrix values="0 0 0 0 0.945098039   0 0 0 0 0.407956259   0 0 0 0 0.254901961  0 0 0 0.5 0"
                     in="shadowBlurOuter1"/>
    </filter>
    <linearGradient x1="50%" y1="1.11022302e-14%" x2="50%" y2="143.444839%" id="linearGradient-5">
      <stop stop-color="#FFFFFF" stop-opacity="0.444247159" offset="0%"/>
      <stop stop-color="#FFFFFF" stop-opacity="0.141717657" offset="100%"/>
    </linearGradient>
    <path
      d="M56.1309561,90.1315825 C61.6126945,90.1315825 65.840739,88.7966777 68.8150897,86.1268681 C71.7894403,83.4570585 73.2766157,79.7467337 73.2766157,74.9958937 C73.2766157,70.8947413 71.9670893,67.6564551 69.3480365,65.2810351 C66.7289837,62.9056151 63.1760051,61.7179052 58.6891007,61.7179052 C57.2070011,61.7179052 55.9533072,61.7991161 54.9280191,61.961538 C53.902731,62.1239599 53.034789,62.266079 52.3241933,62.3878954 L52.3241933,62.3878954 L53.3291787,51.3635104 L70.1702972,51.3635104 L70.1702972,44.998603 L47.0251795,44.998603 L45.3197498,66.742832 L48.5174306,68.6309864 C49.5731728,68.3873535 50.8014882,68.1690991 52.2023769,67.9762232 C53.6032656,67.7833472 54.7808242,67.6869092 55.7350528,67.6869092 C62.5161662,67.6869092 65.9067229,70.3465675 65.9067229,75.665884 C65.9067229,78.4473586 65.0641594,80.5588431 63.3790324,82.0003372 C61.6939054,83.4418314 59.2372745,84.1625785 56.0091397,84.1625785 C54.1818936,84.1625785 52.2023769,83.9087943 50.0705898,83.4012259 C47.9388026,82.8936576 46.0506483,82.1729105 44.4061268,81.2389847 L44.4061268,81.2389847 L44.4061268,87.7257085 C47.2485096,89.3296245 51.1567861,90.1315825 56.1309561,90.1315825 Z"
      id="path-6"/>
    <filter x="-24.2%" y="-11.1%" width="148.5%" height="131.0%" filterUnits="objectBoundingBox" id="filter-7">
      <feOffset dx="0" dy="2" in="SourceAlpha" result="shadowOffsetOuter1"/>
      <feGaussianBlur stdDeviation="2" in="shadowOffsetOuter1" result="shadowBlurOuter1"/>
      <feComposite in="shadowBlurOuter1" in2="SourceAlpha" operator="out" result="shadowBlurOuter1"/>
      <feColorMatrix values="0 0 0 0 0   0 0 0 0 0   0 0 0 0 0  0 0 0 0.1 0" in="shadowBlurOuter1"/>
    </filter>
  </defs>
  <g stroke="none" stroke-width="1" fill="none" fill-rule="evenodd">
    <g transform="translate(-757.000000, -509.000000)">
      <g transform="translate(240.000000, 166.000000)">
        <g transform="translate(30.000000, 252.000000)">
          <g transform="translate(460.000000, 0.000000)">
            <g transform="translate(46.326476, 102.375000)">
              <g>
                <use fill="black" fill-opacity="1" filter="url(#filter-4)" xlink:href="#path-3"/>
                <use fill="url(#linearGradient-1)" fill-rule="evenodd" xlink:href="#path-3"/>
                <path stroke="url(#linearGradient-2)" stroke-width="4.6200001"
                      d="M47.690169,1.61011964 L47.690153,1.6101289 C54.4678904,-2.3031956 62.8189487,-2.3031956 69.596634,1.61009886 L108.640385,24.1517941 C115.418198,28.0651623 119.593565,35.2970484 119.593565,43.1234717 L119.593565,88.2068022 C119.593565,96.0332255 115.418198,103.265112 108.640333,107.17851 L69.5966861,129.720145 C62.8189487,133.63347 54.4678904,133.63347 47.6901851,129.720164 L8.6474809,107.178554 C1.86888032,103.265311 -2.30672602,96.0334904 -2.30672602,88.2068022 L-2.30672602,43.1234717 C-2.30672602,35.2967836 1.86888032,28.0649628 8.6473846,24.1517756 L47.690169,1.61011964 Z"/>
                <path stroke="#FFFFFF" stroke-width="4.6200001"
                      d="M50.0002398,5.61111625 L50.0002077,5.61113478 L10.9573109,28.1528556 C5.60822211,31.2408504 2.31327408,36.9474405 2.31327408,43.1234717 L2.31327408,88.2068022 C2.31327408,94.3828335 5.60822211,100.089424 10.9574072,103.177474 L50.0002398,125.719158 C55.3485001,128.807132 61.938339,128.807132 67.2866513,125.719128 L106.330299,103.177492 C111.67875,100.089408 114.973565,94.3826687 114.973565,88.2068022 L114.973565,43.1234717 C114.973565,36.9476052 111.67875,31.2408658 106.330351,28.1528115 L67.2865993,5.61111625 C61.938339,2.52314208 55.3485001,2.52314208 50.0002398,5.61111625 Z"/>
              </g>
              <path
                d="M59.5994597,101.358361 C61.8955955,101.358361 63.7580047,103.21968 63.7580047,105.515816 C63.7580047,107.813041 61.8955955,109.674361 59.5994597,109.674361 C59.5831133,109.674361 59.5689463,109.670002 59.5525998,109.670002 C59.5362533,109.670002 59.5220864,109.674361 59.5057399,109.674361 C57.2096041,109.674361 55.3482847,107.813041 55.3482847,105.515816 C55.3482847,103.21968 57.2096041,101.358361 59.5057399,101.358361 C59.5220864,101.358361 59.5362533,101.36272 59.5525998,101.36272 C59.5689463,101.36272 59.5831133,101.358361 59.5994597,101.358361 Z M83.3680367,106.161586 C83.3680367,106.161586 77.1458275,109.584186 72.3236979,104.451112 C72.3236979,104.451112 79.0126003,101.80615 83.3680367,106.161586 Z M46.7629952,104.443657 L46.7823163,104.451112 C41.9601867,109.584186 35.7379776,106.161586 35.7379776,106.161586 C39.9573065,101.942257 46.3665387,104.292638 46.7629952,104.443657 Z M92.2718606,101.495204 C92.2718606,101.495204 86.341885,105.401008 81.1268086,100.666934 C81.1268086,100.666934 87.5840154,97.4991439 92.2718606,101.495204 Z M37.9792607,100.666879 C32.7641843,105.400953 26.8336583,101.495149 26.8336583,101.495149 C31.5215035,97.4990889 37.9792607,100.666879 37.9792607,100.666879 Z M80.7122882,92.5988652 C80.7122882,92.5988652 80.4277594,99.6939228 73.5412829,101.171051 L73.5455304,101.147093 C73.6275643,100.696594 74.9354766,94.0275162 80.7122882,92.5988652 Z M38.3938912,92.5988102 C44.1707027,94.0279929 45.478615,100.696575 45.5606489,101.14704 L45.5648964,101.170996 C38.6784199,99.6944181 38.3938912,92.5988102 38.3938912,92.5988102 Z M32.348398,96.1051181 C26.0304287,99.216773 21.406974,93.827237 21.406974,93.827237 C27.0149973,91.2791361 32.348398,96.1051181 32.348398,96.1051181 Z M97.6990953,93.827237 C97.6990953,93.827237 93.0756406,99.216773 86.7576712,96.1051181 C86.7576712,96.1051181 92.091072,91.2791361 97.6990953,93.827237 Z M33.7610806,85.5823971 C38.2051226,89.8475767 35.6982976,96.5893123 35.6982976,96.5893123 C30.6234115,92.014173 33.5720309,85.9565758 33.7525899,85.599005 L33.7610806,85.5823971 Z M85.3449337,85.5823971 C85.3449337,85.5823971 88.638753,91.8733995 83.4077166,96.5893123 C83.4077166,96.5893123 80.9008916,89.8475767 85.3449337,85.5823971 Z M29.8514243,80.2504822 C33.2553128,85.3841075 29.3346496,91.414246 29.3346496,91.414246 C25.2615406,85.6686363 29.8514243,80.2504822 29.8514243,80.2504822 Z M89.2545899,80.2504822 C89.2545899,80.2504822 93.8444736,85.6686363 89.7713646,91.414246 C89.7713646,91.414246 85.8507014,85.3841075 89.2545899,80.2504822 Z M103.716741,85.3806403 C103.716741,85.3806403 99.805984,91.3078642 93.1473506,89.0129223 C93.1473506,89.0129223 97.8335448,83.5562441 103.716741,85.3806403 Z M25.9586636,89.0129223 C19.3000303,91.3078642 15.3892733,85.3806403 15.3892733,85.3806403 C21.2724695,83.5562441 25.9586636,89.0129223 25.9586636,89.0129223 Z M105.935845,77.0289783 C105.935845,77.0289783 103.127981,83.5516763 96.1694093,82.462542 C96.1694093,82.462542 99.8237051,76.2667494 105.935845,77.0289783 Z M22.936605,82.462542 C15.9780332,83.5516763 13.1701691,77.0289783 13.1701691,77.0289783 C19.2823091,76.2667494 22.936605,82.462542 22.936605,82.462542 Z M26.3948126,70.6555892 C29.3870425,76.0396217 25.007391,81.7450562 25.007391,81.7450562 C21.5071411,75.8849915 26.0953464,70.9668996 26.3810113,70.6697958 L26.3948126,70.6555892 Z M92.7106513,70.6555892 C92.7106513,70.6555892 97.7099921,75.6989577 94.0986233,81.7450562 C94.0986233,81.7450562 89.7189717,76.0396217 92.7106513,70.6555892 Z M105.710974,67.6687526 C105.710974,67.6687526 105.883232,74.7676626 99.1062744,76.6839665 C99.1062744,76.6839665 99.8393349,69.5289213 105.710974,67.6687526 Z M13.3947652,67.6686976 C19.2669545,69.5294166 20.000015,76.6839115 20.000015,76.6839115 C13.7438538,74.9155236 13.4093868,68.7302494 13.3949491,67.7891326 L13.3947652,67.6686976 Z M26.1799577,62.2428388 C27.1788352,68.3208573 21.129985,72.2129026 21.129985,72.2129026 C19.7717316,65.3022108 26.1799577,62.2428388 26.1799577,62.2428388 Z M92.9258364,62.2428388 C92.9258364,62.2428388 99.3340625,65.3022108 97.9758091,72.2129026 C97.9758091,72.2129026 91.9275092,68.3208573 92.9258364,62.2428388 Z M104.788704,57.0184615 C104.788704,57.0184615 106.915791,63.7937681 100.931881,67.5080517 C100.931881,67.5080517 99.6594819,60.4289542 104.788704,57.0184615 Z M14.3173098,57.0184615 C19.4465323,60.4289542 18.1741329,67.5080517 18.1741329,67.5080517 C12.1902235,63.7937681 14.3173098,57.0184615 14.3173098,57.0184615 Z M27.283566,52.892079 C27.6481803,58.812821 21.7162894,62.0548181 21.27639,62.2868443 L21.2506758,62.3002398 C20.5985161,55.2871838 27.283566,52.892079 27.283566,52.892079 Z M91.8222831,52.8921891 C91.8222831,52.8921891 98.5073331,55.2872939 97.8551734,62.3003499 C97.8551734,62.3003499 91.4441956,59.0401016 91.8222831,52.8921891 Z M98.787352,46.1632582 C98.787352,46.1632582 103.877224,51.1151925 100.375422,57.2257578 C100.375422,57.2257578 95.8930356,51.6005419 98.787352,46.1632582 Z M17.5476193,45.8556884 C21.6713601,50.431263 18.6829826,56.9737734 18.6829826,56.9737734 C13.8069192,51.8918807 17.5476193,45.8556884 17.5476193,45.8556884 Z"
                fill="url(#linearGradient-5)"/>
            </g>
          </g>
        </g>
      </g>
    </g>
  </g>
</svg>

<svg width="156" height="168" viewBox="0 0 156 156" xmlns="http://www.w3.org/2000/svg" xmlns:xlink="http://www.w3.org/1999/xlink"><defs><linearGradient x1="50%" y1="0%" x2="50%" y2="100%" id="c"><stop stop-color="#FFCF43" offset="0%"/><stop stop-color="#FF9516" offset="100%"/></linearGradient><linearGradient x1="8.902%" y1="0%" x2="91.098%" y2="103.628%" id="d"><stop stop-color="#FFA200" offset="0%"/><stop stop-color="#FF6A2C" offset="100%"/></linearGradient><linearGradient x1="50%" y1="0%" x2="50%" y2="143.445%" id="e"><stop stop-color="#FFF" stop-opacity=".444" offset="0%"/><stop stop-color="#FFF" stop-opacity=".142" offset="100%"/></linearGradient><filter x="-26.1%" y="-18.3%" width="152.2%" height="147.3%" filterUnits="objectBoundingBox" id="a"><feMorphology radius="4.62" operator="dilate" in="SourceAlpha" result="shadowSpreadOuter1"/><feOffset dy="7" in="shadowSpreadOuter1" result="shadowOffsetOuter1"/><feGaussianBlur stdDeviation="7.5" in="shadowOffsetOuter1" result="shadowBlurOuter1"/><feComposite in="shadowBlurOuter1" in2="SourceAlpha" operator="out" result="shadowBlurOuter1"/><feColorMatrix values="0 0 0 0 0.945098039 0 0 0 0 0.407956259 0 0 0 0 0.254901961 0 0 0 0.5 0" in="shadowBlurOuter1"/></filter><path d="M48.845 3.61L9.802 26.153c-6.064 3.5-9.799 9.97-9.799 16.971v45.084c0 7.001 3.735 13.47 9.8 16.971l39.042 22.542a19.596 19.596 0 0019.597 0l39.043-22.542a19.597 19.597 0 009.799-16.971V43.123c0-7-3.736-13.47-9.799-16.97L68.442 3.61a19.596 19.596 0 00-19.597 0z" id="b"/></defs><g fill="none" fill-rule="evenodd"><g transform="translate(19.326 11.375)"><use fill="#000" filter="url(#a)" xlink:href="#b"/><use fill="url(#c)" xlink:href="#b"/><path stroke="url(#d)" stroke-width="4.62" d="M47.69 1.61h0a21.906 21.906 0 0121.907 0l39.043 22.542a21.907 21.907 0 0110.954 18.971v45.084a21.907 21.907 0 01-10.954 18.972L69.597 129.72a21.906 21.906 0 01-21.907 0L8.647 107.18A21.906 21.906 0 01-2.307 88.207V43.123A21.906 21.906 0 018.647 24.152L47.69 1.61z"/><path stroke="#FFF" stroke-width="4.62" d="M50 5.611h0L10.957 28.153a17.286 17.286 0 00-8.644 14.97v45.084a17.286 17.286 0 008.644 14.97L50 125.72a17.286 17.286 0 0017.287 0l39.043-22.542a17.287 17.287 0 008.644-14.97V43.123a17.287 17.287 0 00-8.644-14.97L67.287 5.61a17.286 17.286 0 00-17.287 0z"/></g><path d="M59.6 101.358a4.158 4.158 0 110 8.316c-.017 0-.031-.004-.047-.004-.017 0-.03.004-.047.004a4.158 4.158 0 010-8.316c.016 0 .03.005.047.005.016 0 .03-.005.046-.005zm23.768 4.804s-6.222 3.422-11.044-1.71c0 0 6.689-2.646 11.044 1.71zm-36.605-1.718l.02.007c-4.823 5.133-11.045 1.71-11.045 1.71 4.22-4.219 10.629-1.868 11.025-1.717zm45.509-2.949s-5.93 3.906-11.145-.828c0 0 6.457-3.168 11.145.828zm-54.293-.828c-5.215 4.734-11.145.828-11.145.828 4.688-3.996 11.145-.828 11.145-.828zm42.733-8.068s-.284 7.095-7.17 8.572l.004-.024c.082-.45 1.39-7.12 7.166-8.548zm-42.318 0c5.777 1.429 7.085 8.098 7.167 8.548l.004.024c-6.887-1.477-7.171-8.572-7.171-8.572zm-6.046 3.506c-6.318 3.112-10.941-2.278-10.941-2.278 5.608-2.548 10.941 2.278 10.941 2.278zM97.7 93.827s-4.623 5.39-10.941 2.278c0 0 5.333-4.826 10.941-2.278zm-63.938-8.245c4.444 4.266 1.937 11.007 1.937 11.007-5.075-4.575-2.126-10.632-1.945-10.99l.008-.017zm51.584 0s3.294 6.291-1.937 11.007c0 0-2.507-6.741 1.937-11.007zM29.85 80.25c3.404 5.134-.516 11.164-.516 11.164-4.073-5.745.516-11.164.516-11.164zm59.404 0s4.59 5.419.516 11.164c0 0-3.92-6.03-.516-11.164zm14.462 5.13s-3.911 5.928-10.57 3.633c0 0 4.687-5.457 10.57-3.632zm-77.758 3.633c-6.659 2.295-10.57-3.632-10.57-3.632 5.883-1.825 10.57 3.632 10.57 3.632zm79.977-11.984s-2.808 6.523-9.767 5.434c0 0 3.655-6.196 9.767-5.434zm-83 5.434c-6.958 1.089-9.766-5.434-9.766-5.434 6.112-.762 9.767 5.434 9.767 5.434zm3.459-11.807c2.992 5.384-1.388 11.09-1.388 11.09-3.5-5.861 1.088-10.78 1.374-11.076l.014-.014zm66.316 0s4.999 5.043 1.388 11.09c0 0-4.38-5.706-1.388-11.09zm13-2.987s.172 7.099-6.605 9.015c0 0 .733-7.155 6.605-9.015zm-92.316 0C19.267 69.529 20 76.684 20 76.684c-6.256-1.768-6.59-7.954-6.605-8.895v-.12zm12.785-5.426c.999 6.078-5.05 9.97-5.05 9.97-1.358-6.91 5.05-9.97 5.05-9.97zm66.746 0s6.408 3.06 5.05 9.97c0 0-6.048-3.892-5.05-9.97zm11.863-5.225s2.127 6.776-3.857 10.49c0 0-1.273-7.079 3.857-10.49zm-90.472 0c5.13 3.411 3.857 10.49 3.857 10.49-5.984-3.714-3.857-10.49-3.857-10.49zm12.967-4.126c.364 5.92-5.568 9.163-6.008 9.395l-.025.013c-.652-7.013 6.033-9.408 6.033-9.408zm64.538 0s6.685 2.395 6.033 9.408c0 0-6.41-3.26-6.033-9.408zm6.965-6.729s5.09 4.952 1.588 11.063c0 0-4.482-5.625-1.588-11.063zm-81.24-.307c4.124 4.575 1.136 11.118 1.136 11.118-4.876-5.082-1.135-11.118-1.135-11.118z" fill="url(#e)" transform="translate(19.326 11.375)"/></g></svg>
